icons/settings.svg

<svg
  width="24"
  height="24"
  viewBox="0 0 24 24"
  xmlns="http://www.w3.org/2000/svg"
  fill="none"
  stroke="currentColor"
  stroke-width="2"
  stroke-linecap="round"
  stroke-linejoin="round"
>
  <path d="M5 5v4l-3 3 3 3v4h4l3 3 3-3h4v-4l3-3-3-3V5h-4l-3-3-3 3H5z" />
  <circle cx="12" cy="12" r="3" />
</svg>

<svg width="24" height="24" viewBox="0 0 24 24" fill="none" xmlns="http://www.w3.org/2000/svg">
<path d="M5 5V9L2 12L5 15V19H9L12 22L15 19H19V15L22 12L19 9V5H15L12 2L9 5H5Z" stroke="#1E293B" stroke-width="2" stroke-linecap="round" stroke-linejoin="round"/>
<circle cx="12" cy="12" r="3" stroke="#1E293B" stroke-width="2" stroke-linecap="round" stroke-linejoin="round"/>
</svg>
